TRatioPlot/r3.svg

<svg xmlns="http://www.w3.org/2000/svg" viewBox="0 0 698 475" preserveAspectRatio="none" width="698" height="475">
 <path d="M0,0H698V475H0Z" style="fill: white;"></path>
 <g>
  <svg viewBox="0 0 695 331" preserveAspectRatio="none" x="2" y="1" width="695" height="331">
   <path d="M0,0H695V331H0Z" style="fill: white;"></path>
   <g>
    <g transform="translate(70,33)">
     <path d="M0,0H556V281H0Z" style="fill: white; stroke: black; stroke-width: 1;"></path>
     <svg x="0" y="0" overflow="hidden" width="556" height="281" viewBox="0 0 556 281">
      <g>
       <path d="M0,286h33v-165h11v165h34v-165h11v165h11v-165h11v-16h11v-26h34v-32h11v-1h11v-6h11v-12h11v-7h11v-3h11v-6h12v-3h22v-5h11v-3h11v2h11v1h22v6h11v4h12v5h11v7h11v4h11v5h11v8h11v9h11v7h11v17h12v3h11v16h11v26h11v165h11v-181h11v181h22v-165h12v165h44" style="stroke-linejoin: miter; stroke: #00009a; stroke-width: 1; fill: none;"></path>
      </g>
      <g>
       <path d="M3,286l6,-6l5,-11l6,-11l5,-11l6,-10l5,-11l6,-10l5,-10l6,-9l6,-10l5,-9l6,-9l5,-9l6,-8l5,-8l6,-8l6,-8l5,-8l6,-7l5,-7l6,-7l5,-7l6,-6l5,-6l6,-6l6,-6l5,-5l6,-5l5,-5l6,-5l5,-4l6,-5l5,-4l6,-3l6,-4l5,-3l6,-3l5,-3l6,-3l5,-2l6,-2l6,-2l5,-2l6,-1l5,-1l6,-1l5,-1l6,-1h5h6h6l5,1h6l5,1l6,2l5,1l6,2l5,1l6,3l6,2l5,2l6,3l5,3l6,4l5,3l6,4l6,4l5,4l6,4l5,5l6,5l5,5l6,6l5,5l6,6l6,6l5,7l6,6l5,7l6,7l5,7l6,8l5,7l6,8l6,9l5,8l6,9l5,9l6,9l5,9l6,10l6,10l5,10l6,10l5,11l6,11l5,11l6,11l5,7" style="fill: none; stroke: red; stroke-width: 2;"></path>
      </g>
     </svg>
     <g>
      <g transform="translate(0,281)">
       <path d="M0,0h556M0,-10V0M11,-5V0M22,-5V0M33,-5V0M44,-5V0M56,-10V0M67,-5V0M78,-5V0M89,-5V0M100,-5V0M111,-10V0M122,-5V0M133,-5V0M145,-5V0M156,-5V0M167,-10V0M178,-5V0M189,-5V0M200,-5V0M211,-5V0M222,-10V0M234,-5V0M245,-5V0M256,-5V0M267,-5V0M278,-10V0M289,-5V0M300,-5V0M311,-5V0M322,-5V0M334,-10V0M345,-5V0M356,-5V0M367,-5V0M378,-5V0M389,-10V0M400,-5V0M411,-5V0M423,-5V0M434,-5V0M445,-10V0M456,-5V0M467,-5V0M478,-5V0M489,-5V0M500,-10V0M512,-5V0M523,-5V0M534,-5V0M545,-5V0M556,-10V0" style="stroke: black; stroke-width: 1;"></path>
      </g>
      <g>
       <path d="M0,0v281M556,0v281M21,281H0M11,265H0M11,256H0M11,249H0M11,244H0M11,239H0M11,236H0M11,233H0M11,230H0M21,228H0M11,211H0M11,202H0M11,195H0M11,190H0M11,186H0M11,182H0M11,179H0M11,177H0M21,174H0M11,158H0M11,149H0M11,142H0M11,137H0M11,133H0M11,129H0M11,126H0M11,123H0M21,121H0M11,105H0M11,95H0M11,89H0M11,83H0M11,79H0M11,76H0M11,72H0M11,70H0M21,67H0M11,51H0M11,42H0M11,35H0M11,30H0M11,26H0M11,22H0M11,19H0M11,16H0M21,14H0M535,281H556M545,265H556M545,256H556M545,249H556M545,244H556M545,239H556M545,236H556M545,233H556M545,230H556M535,228H556M545,211H556M545,202H556M545,195H556M545,190H556M545,186H556M545,182H556M545,179H556M545,177H556M535,174H556M545,158H556M545,149H556M545,142H556M545,137H556M545,133H556M545,129H556M545,126H556M545,123H556M535,121H556M545,105H556M545,95H556M545,89H556M545,83H556M545,79H556M545,76H556M545,72H556M545,70H556M535,67H556M545,51H556M545,42H556M545,35H556M545,30H556M545,26H556M545,22H556M545,19H556M545,16H556M535,14H556" style="stroke: black; stroke-width: 1;"></path>
       <g font-family="Arial" font-size="12" space="preserve">
        <g transform="translate(-21,286)">
         <text fill="black" font-size="12">
          10
         </text>
         <text fill="black" font-size="7" transform="translate(13,-6)">
          -3
         </text>
        </g>
        <g transform="translate(-21,233)">
         <text fill="black" font-size="12">
          10
         </text>
         <text fill="black" font-size="7" transform="translate(13,-6)">
          -2
         </text>
        </g>
        <g transform="translate(-21,179)">
         <text fill="black" font-size="12">
          10
         </text>
         <text fill="black" font-size="7" transform="translate(13,-6)">
          -1
         </text>
        </g>
        <g transform="translate(-19,126)">
         <text fill="black" font-size="12">
          10
         </text>
         <text fill="black" font-size="7" transform="translate(13,-6)">
          0
         </text>
        </g>
        <g transform="translate(-19,72)">
         <text fill="black" font-size="12">
          10
         </text>
         <text fill="black" font-size="7" transform="translate(13,-6)">
          1
         </text>
        </g>
        <g transform="translate(-19,19)">
         <text fill="black" font-size="12">
          10
         </text>
         <text fill="black" font-size="7" transform="translate(13,-6)">
          2
         </text>
        </g>
       </g>
       <g font-family="Arial" font-size="12" space="preserve" transform="translate(-28)">
        <text fill="black" text-anchor="end" dy=".4em" transform="rotate(270)">
         y
        </text>
       </g>
      </g>
     </g>
    </g>
    <g transform="translate(70,2)" font-family="Arial" font-size="17" space="preserve">
     <text fill="black" text-anchor="middle" dy=".8em" transform="translate(278)">
      h1
     </text>
    </g>
   </g>
  </svg>
  <svg viewBox="0 0 695 141" preserveAspectRatio="none" x="2" y="333" width="695" height="141">
   <path d="M0,0H695V141H0Z" style="fill: white;"></path>
   <g>
    <g transform="translate(70,7)">
     <path d="M0,0H556V92H0Z" style="fill: white; stroke: black; stroke-width: 1;"></path>
     <svg x="0" y="0" overflow="hidden" width="556" height="92" viewBox="0 0 556 92">
      <g>
       <path d="M50,46l45,5l22,9l11,2l11,-3l11,5l11,6l11,-9l11,3h12l11,-2l11,-1l11,1h22l11,2l11,-1l12,-1l11,-1l11,-1l11,-1l11,1h22l11,1l12,-1l11,-1l11,-1l11,-1l11,-1l11,-1l11,-3h22l23,-5l33,-1L517,46l-33,-1l-23,-5h-22l-11,-3l-11,-1l-11,-1l-11,-1l-11,-1l-11,-1l-12,-1l-11,1h-22l-11,1l-11,-1l-11,-1l-11,-1l-12,-1l-11,-1l-11,2h-22l-11,1l-11,-1l-11,-2h-12l-11,3l-11,-9l-11,6l-11,5l-11,-3l-11,2l-22,9l-45,5Z" style="fill: #00ff00;"></path>
      </g>
      <g>
       <path d="M50,46l45,3l22,4l11,1l11,-1l11,2l11,3l11,-4l11,1h12l11,-1h44l11,1l11,-1h23l11,-1h67l11,-1h22l11,-1h11l11,-2h22l23,-2l33,-1L517,46l-33,-1l-23,-2h-22l-11,-2h-11l-11,-1h-22l-11,-1h-67l-11,-1h-23l-11,-1l-11,1h-44l-11,-1h-12l-11,1l-11,-4l-11,3l-11,2l-11,-1l-11,1l-22,4l-45,3Z" style="fill: #ffff00;"></path>
      </g>
      <g>
       <path d="M39,23l44,7l23,21l11,-2l11,-23l11,26l11,38l11,-78l11,35l11,12l12,-24l11,-8l11,23l11,-11l11,4l11,35l11,-35l11,-23l12,19l11,4l11,-25l11,38l11,6l11,1l11,14l11,-23l12,-18l11,-3l11,4l11,-9l11,16l11,-16l11,9l11,15l23,-33l33,5" style="stroke: black; stroke-width: 1; fill: none;"></path>
      </g>
     </svg>
    </g>
    <g>
     <path d="M70,30H625" style="stroke: black; stroke-width: 1; stroke-dasharray: 3,3;"></path>
    </g>
    <g>
     <path d="M70,53H625" style="stroke: black; stroke-width: 1; stroke-dasharray: 3,3;"></path>
    </g>
    <g>
     <path d="M70,76H625" style="stroke: black; stroke-width: 1; stroke-dasharray: 3,3;"></path>
    </g>
   </g>
  </svg>
 </g>
</svg>

<svg xmlns="http://www.w3.org/2000/svg" viewBox="0 0 698 475" preserveAspectRatio="none" width="698" height="475">
 <path d="M0,0H698V475H0Z" style="fill: white;"></path>
 <g>
  <svg viewBox="0 0 695 331" preserveAspectRatio="none" x="2" y="1" width="695" height="331">
   <path d="M0,0H695V331H0Z" style="fill: white;"></path>
   <g>
    <g transform="translate(70,33)">
     <path d="M0,0H556V281H0Z" style="fill: white; stroke: black; stroke-width: 1;"></path>
     <svg x="0" y="0" overflow="hidden" width="556" height="281" viewBox="0 0 556 281">
      <g>
       <path d="M0,286h33v-165h11v165h34v-165h11v165h11v-165h11v-16h11v-26h34v-32h11v-1h11v-6h11v-12h11v-7h11v-3h11v-6h12v-3h22v-5h11v-3h11v2h11v1h22v6h11v4h12v5h11v7h11v4h11v5h11v8h11v9h11v7h11v17h12v3h11v16h11v26h11v165h11v-181h11v181h22v-165h12v165h44" style="stroke-linejoin: miter; stroke: #00009a; stroke-width: 1; fill: none;"></path>
      </g>
      <g>
       <path d="M3,286L9,280L14,269L20,258L25,247L31,237L36,226L42,216L47,206L53,197L59,187L64,178L70,169L75,160L81,152L86,144L92,136L98,128L103,120L109,113L114,106L120,99L125,92L131,86L136,80L142,74L148,68L153,63L159,58L164,53L170,48L175,44L181,39L186,35L192,32L198,28L203,25L209,22L214,19L220,16L225,14L231,12L237,10L242,8L248,7L253,6L259,5L264,4L270,3L275,3L281,3L287,3L292,4L298,4L303,5L309,7L314,8L320,10L325,11L331,14L337,16L342,18L348,21L353,24L359,28L364,31L370,35L376,39L381,43L387,47L392,52L398,57L403,62L409,68L414,73L420,79L426,85L431,92L437,98L442,105L448,112L453,119L459,127L464,134L470,142L476,151L481,159L487,168L492,177L498,186L503,195L509,205L515,215L520,225L526,235L531,246L537,257L542,268L548,279L553,286" style="fill: none; stroke: red; stroke-width: 2;"></path>
      </g>
     </svg>
     <g>
      <g transform="translate(0,281)">
       <path d="M0,0h556M0,-10V0M11,-5V0M22,-5V0M33,-5V0M44,-5V0M56,-10V0M67,-5V0M78,-5V0M89,-5V0M100,-5V0M111,-10V0M122,-5V0M133,-5V0M145,-5V0M156,-5V0M167,-10V0M178,-5V0M189,-5V0M200,-5V0M211,-5V0M222,-10V0M234,-5V0M245,-5V0M256,-5V0M267,-5V0M278,-10V0M289,-5V0M300,-5V0M311,-5V0M322,-5V0M334,-10V0M345,-5V0M356,-5V0M367,-5V0M378,-5V0M389,-10V0M400,-5V0M411,-5V0M423,-5V0M434,-5V0M445,-10V0M456,-5V0M467,-5V0M478,-5V0M489,-5V0M500,-10V0M512,-5V0M523,-5V0M534,-5V0M545,-5V0M556,-10V0" style="stroke: black; stroke-width: 1;"></path>
      </g>
      <g>
       <path d="M0,0v281M556,0v281M21,281H0M11,265H0M11,256H0M11,249H0M11,244H0M11,239H0M11,236H0M11,233H0M11,230H0M21,228H0M11,211H0M11,202H0M11,195H0M11,190H0M11,186H0M11,182H0M11,179H0M11,177H0M21,174H0M11,158H0M11,149H0M11,142H0M11,137H0M11,133H0M11,129H0M11,126H0M11,123H0M21,121H0M11,105H0M11,95H0M11,89H0M11,83H0M11,79H0M11,76H0M11,72H0M11,70H0M21,67H0M11,51H0M11,42H0M11,35H0M11,30H0M11,26H0M11,22H0M11,19H0M11,16H0M21,14H0M535,281H556M545,265H556M545,256H556M545,249H556M545,244H556M545,239H556M545,236H556M545,233H556M545,230H556M535,228H556M545,211H556M545,202H556M545,195H556M545,190H556M545,186H556M545,182H556M545,179H556M545,177H556M535,174H556M545,158H556M545,149H556M545,142H556M545,137H556M545,133H556M545,129H556M545,126H556M545,123H556M535,121H556M545,105H556M545,95H556M545,89H556M545,83H556M545,79H556M545,76H556M545,72H556M545,70H556M535,67H556M545,51H556M545,42H556M545,35H556M545,30H556M545,26H556M545,22H556M545,19H556M545,16H556M535,14H556" style="stroke: black; stroke-width: 1;"></path>
       <g font-family="Arial" font-size="12" space="preserve">
        <g transform="translate(-21,286)">
         <text fill="black" font-size="12">
          10
         </text>
         <text fill="black" font-size="7" transform="translate(13,-6)">
          -3
         </text>
        </g>
        <g transform="translate(-21,233)">
         <text fill="black" font-size="12">
          10
         </text>
         <text fill="black" font-size="7" transform="translate(13,-6)">
          -2
         </text>
        </g>
        <g transform="translate(-21,179)">
         <text fill="black" font-size="12">
          10
         </text>
         <text fill="black" font-size="7" transform="translate(13,-6)">
          -1
         </text>
        </g>
        <g transform="translate(-19,126)">
         <text fill="black" font-size="12">
          10
         </text>
         <text fill="black" font-size="7" transform="translate(13,-6)">
          0
         </text>
        </g>
        <g transform="translate(-19,72)">
         <text fill="black" font-size="12">
          10
         </text>
         <text fill="black" font-size="7" transform="translate(13,-6)">
          1
         </text>
        </g>
        <g transform="translate(-19,19)">
         <text fill="black" font-size="12">
          10
         </text>
         <text fill="black" font-size="7" transform="translate(13,-6)">
          2
         </text>
        </g>
       </g>
       <g font-family="Arial" font-size="12" space="preserve" transform="translate(-28)">
        <text fill="black" text-anchor="end" dy=".4em" transform="rotate(270)">
         y
        </text>
       </g>
      </g>
     </g>
    </g>
    <g transform="translate(70,2)" font-family="Arial" font-size="17" space="preserve">
     <text fill="black" text-anchor="middle" dy=".8em" transform="translate(278)">
      h1
     </text>
    </g>
   </g>
  </svg>
  <svg viewBox="0 0 695 141" preserveAspectRatio="none" x="2" y="333" width="695" height="141">
   <path d="M0,0H695V141H0Z" style="fill: white;"></path>
   <g>
    <g transform="translate(70,7)">
     <path d="M0,0H556V92H0Z" style="fill: white; stroke: black; stroke-width: 1;"></path>
     <svg x="0" y="0" overflow="hidden" width="556" height="92" viewBox="0 0 556 92">
      <g>
       <path d="M50,46l45,5l22,9l11,2l11,-3l11,5l11,6l11,-9l11,3h12l11,-2l11,-1l11,1h22l11,2l11,-1l12,-1l11,-1l11,-1l11,-1l11,1h22l11,1l12,-1l11,-1l11,-1l11,-1l11,-1l11,-1l11,-3h22l23,-5l33,-1L517,46l-33,-1l-23,-5h-22l-11,-3l-11,-1l-11,-1l-11,-1l-11,-1l-11,-1l-12,-1l-11,1h-22l-11,1l-11,-1l-11,-1l-11,-1l-12,-1l-11,-1l-11,2h-22l-11,1l-11,-1l-11,-2h-12l-11,3l-11,-9l-11,6l-11,5l-11,-3l-11,2l-22,9l-45,5Z" style="fill: #00ff00;"></path>
      </g>
      <g>
       <path d="M50,46l45,3l22,4l11,1l11,-1l11,2l11,3l11,-4l11,1h12l11,-1h44l11,1l11,-1h23l11,-1h67l11,-1h22l11,-1h11l11,-2h22l23,-2l33,-1L517,46l-33,-1l-23,-2h-22l-11,-2h-11l-11,-1h-22l-11,-1h-67l-11,-1h-23l-11,-1l-11,1h-44l-11,-1h-12l-11,1l-11,-4l-11,3l-11,2l-11,-1l-11,1l-22,4l-45,3Z" style="fill: #ffff00;"></path>
      </g>
      <g>
       <path d="M39,23l44,7l23,21l11,-2l11,-23l11,26l11,38l11,-78l11,35l11,12l12,-24l11,-8l11,23l11,-11l11,4l11,35l11,-35l11,-23l12,19l11,4l11,-25l11,38l11,6l11,1l11,14l11,-23l12,-18l11,-3l11,4l11,-9l11,16l11,-16l11,9l11,15l23,-33l33,5" style="stroke: black; stroke-width: 1; fill: none;"></path>
      </g>
     </svg>
    </g>
    <g>
     <path d="M70,30H625" style="stroke: black; stroke-width: 1; stroke-dasharray: 3,3;"></path>
    </g>
    <g>
     <path d="M70,53H625" style="stroke: black; stroke-width: 1; stroke-dasharray: 3,3;"></path>
    </g>
    <g>
     <path d="M70,76H625" style="stroke: black; stroke-width: 1; stroke-dasharray: 3,3;"></path>
    </g>
   </g>
  </svg>
 </g>
</svg>
